X: 27737
T: Morning Mist, The
R: reel
M: 4/4
K: Amajor
|:e2cA eAcA|eAcA EAce|d2B=G dGBG|d=GBG DGBd|
e2cA eAcA|eAcA EAce|dcBc dfed|1 cABG A2cd:|2 cABG A2ce||
|:a2ed cded|cAA{B}A EAce|bafa bc'ba|gebe c'ebe|
a2ed cded|cAA{B}A EAce|dcBc dfed|1 cABG A2ce:|2 cABG A2cd||

